X:1
T:Listen, Lordings, unto Me
T:Frederick Arthur Gore-Ouseley
T:Listen, Lordings, unto Me
T:Public Domain
T:Public Domain
T:Public Domain
C:Frederick Arthur Gore-Ouseley
Z:Public Domain
%%score ( 1 2 ) ( 3 4 )
L:1/8
M:2/4
K:C
V:1 treble 
V:2 treble 
V:3 bass 
V:4 bass 
V:1
 Cc BA | G>E C[B,D] | (E/F/)[DG] E[^Fc] | [GB]4 | [EA][GB] [Gc](A/G/)[^Fd](D/C/)[B,G][EA] | %5
w: 1.~List- en, Lord- ings,|tale I will you|on * this night of|Da-|vid’s town be- fel. * Jo- seph * came from|
w: 2.~In the inn they|scan- ty bed they|Babe * from Ma- ry’s|in|the man- ger laid. * Forth He * came as|
w: 3.~Shep- herds lay a-|keep the sil- ly|an- * gels in their|down|from Heav’n’s high steep. * Tid- ings! * Tid- ings!|
w: 4.~On- ward then the|shep- herds on- ward|in * His man- ger|wor-|ship low they bent. * In the * morn- ing|
 [DB][Cc] E(D/[CG]/) | [B,G]2 z2 | [Gd][Gd] [Ge]>[Ge] | [Ge]>[Gd] [Gd]G[Gc][Gd][Ge](d/c/) | %9
w: reth, with Ma- ry *|sweet|maid: Wea- ry they|were, nigh to death; and for a lodg- *|
w: glass: He came to *|us|all. In the sta-|ble ox and ass be- fore their Mak- *|
w: you: to you a *|is|born, Pur- er than|the drops of dew, and bright- er than *|
w: mind, my mas- ters *|and|all, At the al-|tar Him to find, Who lay with- in *|
 [Gd]2 z2 | [Fd]>[Fd] [Ed][Ec] | [DB]>[Ec] [CA]E | [DF][DA] [EA][E^G][EA] z2 ||"^Refrain" [GB] | %14
w: |||||
w: |||||
w: |||||
w: |||||
 [Gc] z2 [EG] | [CE] z2 [EG] | [EA][EG] [DF][EG] | [FA](E/D/) [CE]2 | [Ac][Ac]/[Ac]/ [Af][Ge] | %19
w: |||||
w: |||||
w: |||||
w: |||||
 [Gd]2 [Gd]2 | [Ge][Gd] [Ec][EB] | [CA][CA] (C/B,/)[CE] | (A/B/)[Gc] [Fd]>[Ec] | [Ec]2 z2 |] %24
w: |||||
w: |||||
w: |||||
w: |||||
V:2
 Cc BA | G>E C x | C x/ E x3/2 | x4 | x3 e x/ ^F x5/2 | x2 A3/2 x/ | x4 | x4 | x3 G x2 G x | x4 | %10
w: un- to me, a|tell; Which, as|glee, in||Na- za-|that|||ing prayed.||
w: found no room; a|made: Soon a|womb was||light through|save|||er fall.||
w: field that night, to|sheep, Hosts of|sight came||un- to|Child|||the morn.||
w: an- gels sped, the|went, God was|bed, in||see ye|one|||the stall.||
 x4 | x3 E | x7 || x | x4 | x4 | x4 | x G x2 | x4 | x4 | x4 | x2 G x | F x3 | x4 |] %24
w: ||||||||||||||
w: ||||||||||||||
w: ||||||||||||||
w: ||||||||||||||
V:3
 C,C B,A, | G,>E, C,[G,,G,] | [C,G,][B,,G,] [C,G,][A,,A,] | [G,,D]4 | %4
w: ~ ~ ~ ~|~ ~ ~ ~|~ ~ ~ ~|~|
 [G,C][F,D] [E,C](C/B,/)[D,B,](B,/A,/)[E,G,][C,G,] | [D,G,][E,G,] [C,G,][D,^F,] | [G,,G,]2 z2 | %7
w: ~ ~ ~ ~ * ~ ~ * ~ ~|~ ~ ~ ~|~|
 [G,B,][G,B,] [E,B,]>[C,C] | [G,C]>[G,B,] [G,B,]G,[E,A,][D,B,][C,C](B,/A,/) | [G,B,]2 z2 | %10
w: ~ ~ ~ ~|~ ~ ~ ~ ~ ~ ~ ~ *|~|
 [D,A,]>[D,A,] [A,,A,][A,,A,] | [E,^G,]>[E,G,] [F,A,][C,A,] | [D,A,][F,A,] [E,B,][E,B,][A,C] z2 || %13
w: ~ ~ Sing high,|sing high, sing low,|sing low. Sing high, sing|
 [G,D] | [CE]C C[C,C] | [C,G,]C, C,[C,C] | [A,,C][C,C] [D,A,][C,C] | [F,C][G,B,] [A,C]2 | %18
w: low,|sing to and fro,|Go tell it out|with speed, Cry out|and shout all|
 [F,C][F,C]/[F,C]/ [F,C]C | [G,B,]2 [G,B,]2 | C[G,B,] [A,C][E,G,] | [F,A,][C,E,] [D,F,][E,G,] | %22
w: round a- bout, That Christ|born in-|deed. * * *||
 [F,C][C,E] [G,,B,]>[C,C] | [C,C]2 z2 |] %24
w: ||
V:4
 C,C B,A, | G,>E, C, x | x4 | x4 | x3 C, x/ D, x5/2 | x4 | x4 | x4 | x3 G, x2 C, x | x4 | x4 | x4 | %12
w: ~ ~ ~ ~|~ ~ ~|||~ ~||||~ ~||||
 x7 || x | x4 | x4 | x4 | x4 | x3 C | x4 | C x3 | x4 | x4 | x4 |] %24
w: ||||||is||||||

